!! 00000] TT[WS
!!!OTL: Dong bing
!!!ARE: Asia, China, Shanxi Wutai
!! Ethnic Group: Han
!! WII, 110 (2)
!!!SCT: J0565
!!!YEM: Copyright 1995, estate of Helmut Schaffrath.
**kern
*ICvox
*Ivox
*M2/4
*k[b-]
*F:
{8a
8cc
8dd
16cc
16dd
=1
8ff
8dd
4cc
=2
8.a
16cc
8dd
8ff
=3
4cc
4r}
=4
{8a
8cc
8dd
16cc
16dd
=5
8ff
8dd
4cc
=6
8.cc
16a
8g
8cc
=7
8.f
16a
4c
=8
8.cc
16a
8g
8cc
=9
8.f
16a
4c}
=10
{8b-
4g
8d
=11
2c
=12
8cc
16a
16a
8g
8cc
=13
2f}
=14
{8cc
16a
16a
8g
8a
=15
8cc
8a
4cc
=16
8b-
4g
8d
=17
2c}
==
!!!AGN: Xiaodiao. Qingge, Sichun
!!!ONB: ESAC (Essen Associative Code) Database: CHINA
!!!AMT: simple duple
!!!AIN: vox
!!!EED: Helmut Schaffrath
!!!EEV: 1.0
*-
